img/svg/caret-r.svg

<svg xmlns="http://www.w3.org/2000/svg" width="9" height="17" viewBox="0 0 9 17"><desc>Created with Avocode</desc><path d="M.6-.01l7.93 8.04-.61.62-7.93-8.04.61-.62m7.79 8.25l-8.02 8.14.61.63 8.03-8.14-.62-.63" fill="#8c8d8d"/></svg>

<?xml version="1.0" encoding="UTF-8" standalone="no"?>
<!-- Generator: Avocode 1.1.1 - http://avocode.com -->
<svg xmlns="http://www.w3.org/2000/svg" xmlns:xlink="http://www.w3.org/1999/xlink" width="9" height="17" viewBox="0 0 9 17">
    <desc>Created with Avocode</desc>
    <path d="M0.6,-0.01C0.6,-0.01,8.53,8.03,8.53,8.03C8.53,8.03,7.92,8.65,7.92,8.65C7.92,8.65,-0.01,0.61,-0.01,0.61C-0.01,0.61,0.6,-0.01,0.6,-0.01C0.6,-0.01,0.6,-0.01,0.6,-0.01M8.39,8.24C8.39,8.24,0.37,16.38,0.37,16.38C0.37,16.38,0.98,17.01,0.98,17.01C0.98,17.01,9.01,8.87,9.01,8.87C9.01,8.87,8.39,8.24,8.39,8.24C8.39,8.24,8.39,8.24,8.39,8.24" fill="#8c8d8d" />
</svg>
